COLOR/action 16/16/zoom-fit-drawing.svg

<svg height="16" width="16" xmlns="http://www.w3.org/2000/svg"><g fill="#1a7fd4" stroke-width=".7" transform="matrix(1.9555555 0 0 2 -7.777777 -8)"><path d="m6.6363635 5v.8h3.6818185v3.6h.818182v-4.4zm-1.6363637 1.6v4.4h4.5000002v-4.4zm.8181819.8h2.8636364v2.8h-2.8636364z"/><path d="m6.6363635 5.6v.2h3.6818185v-.2zm-.8181818 1.6v.2h2.8636364v-.2zm4.5000003 2v.2h.818182v-.2zm-5.3181822 1.6v.2h4.5000002v-.2z" fill="#000" opacity=".2"/></g><path d="m4.5.5v.5h11v-.5zm-4 4v.5h11v-.5zm2 9v.5h7v-.5z" fill="#fff" opacity=".3" stroke-width="1.730446" transform="matrix(.79999999861 0 0 .8 1.60000047212 1.6)"/></svg>

<?xml version="1.0" encoding="UTF-8" standalone="no"?>
<svg
   xmlns:dc="http://purl.org/dc/elements/1.1/"
   xmlns:cc="http://creativecommons.org/ns#"
   xmlns:rdf="http://www.w3.org/1999/02/22-rdf-syntax-ns#"
   xmlns:svg="http://www.w3.org/2000/svg"
   xmlns="http://www.w3.org/2000/svg"
   xmlns:sodipodi="http://sodipodi.sourceforge.net/DTD/sodipodi-0.dtd"
   xmlns:inkscape="http://www.inkscape.org/namespaces/inkscape"
   height="16"
   width="16"
   version="1.1"
   id="svg8"
   sodipodi:docname="zoom-fit-drawing.svg"
   inkscape:version="0.92.4 (5da689c313, 2019-01-14)">
  <metadata
     id="metadata14">
    <rdf:RDF>
      <cc:Work
         rdf:about="">
        <dc:format>image/svg+xml</dc:format>
        <dc:type
           rdf:resource="http://purl.org/dc/dcmitype/StillImage" />
      </cc:Work>
    </rdf:RDF>
  </metadata>
  <defs
     id="defs12" />
  <sodipodi:namedview
     pagecolor="#ffffff"
     bordercolor="#808080"
     borderopacity="1"
     objecttolerance="10"
     gridtolerance="10"
     guidetolerance="10"
     inkscape:pageopacity="0"
     inkscape:pageshadow="2"
     inkscape:window-width="1920"
     inkscape:window-height="1016"
     id="namedview10"
     showgrid="false"
     inkscape:zoom="14.75"
     inkscape:cx="-4.9830508"
     inkscape:cy="8"
     inkscape:window-x="0"
     inkscape:window-y="27"
     inkscape:window-maximized="1"
     inkscape:current-layer="g6" />
  <g
     fill="#1a7fd4"
     stroke-width=".875"
     transform="matrix(1.9555555 0 0 2 -7.77777713182 -8)"
     id="g6">
    <path
       style="stroke-width:0.70000005"
       d="m 6.6363635,5 v 0.8 h 3.6818185 v 3.6 h 0.818182 V 5 Z M 4.9999998,6.6 V 11 H 9.5 V 6.6 Z m 0.8181819,0.8 h 2.8636364 v 2.8 H 5.8181817 Z"
       id="path2"
       inkscape:connector-curvature="0" />
    <path
       style="opacity:0.2;fill:#000000;fill-opacity:1;stroke-width:0.70000005"
       d="M 6.6363635,5.6 V 5.8 H 10.318182 V 5.6 Z M 5.8181817,7.2 V 7.4 H 8.6818181 V 7.2 Z m 4.5000003,2 v 0.2 h 0.818182 V 9.2 Z M 4.9999998,10.8 V 11 H 9.5 v -0.2 z"
       id="path837"
       inkscape:connector-curvature="0" />
  </g>
  <g
     id="g825"
     transform="matrix(1.5644444,0,0,1.6,-4.6222216,-4.8)"
     style="fill:#1a7fd4;stroke-width:0.875">
    <path
       style="opacity:0.3;fill:#ffffff;fill-opacity:1;stroke-width:1.73044634"
       d="M 4.5,0.5 V 1 h 11 V 0.5 Z m -4,4 V 5 h 11 V 4.5 Z m 2,9 V 14 h 7 v -0.5 z"
       transform="matrix(0.51136365,0,0,0.5,3.9772725,4)"
       id="path821"
       inkscape:connector-curvature="0" />
  </g>
  <g
     transform="matrix(1.9555555,0,0,2,-7.7777771,-7.5)"
     id="g831"
     style="fill:#1a7fd4;stroke-width:0.875" />
</svg>
